X: 3
M:6/8
L:1/8
K:G
e3 gfe|fbb b2 a|gfe fe^d|e3-e z|
d'/2c'/2|ged g2 g|g3-g2 b|age a2 a|a3-abc'|
d'>c'b d'>c'b|gfe d2 b/2a/2|ged g2 g|g3-g2||
e3 gfe|fbb b2 a|g>fe fe^d|e3-e z||
e|dGG AGG|dGG Gge|d>cB BAG|FAA A2 B/2c/2|
dGG AGG|dGG e2 d/2c/2|B>cd def|gGG G2||
K:D
M:2/4
L:1/16
dB|AFdB ABAF|DFAF E2 EB|AFAd BGBd|cABc dcdB|
a2fd fafd|fafd e2ef|gfef gbag|fedc defg|
a2fd fafd|fafd e2ef|gfef gbag|fedc d2||
K:G
M:6/8
L:1/8
(3d/2e/2f/2|g>ag gdB|d>ed def|g>ag gdB|A>aa a2 b|
g>ag gdB|d>ed d'2 c'|b>ab ged|egg g2||
(3b/2a/2g/2|gbd' d'bg|faa a2 (3a/2g/2f/2|gbd' d'bg|b2 a a2 (3a/2g/2f/2|
gbd' d'bg|faa a2 c'|bab ged|egg g2||

